**kern
*staff1
*tb16
=1-
*clefG2
*k[f#]
*met(c)
*M4/4
8d/
.
4g/
.
.
.
4b\
.
.
.
8r
.
4r
.
.
.
=2
4.e/
.
.
.
.
.
8e/
.
8a/
.
8a/
.
8b/
.
8cc/
.
=3
4g/
.
.
.
8f#/L
.
8a/J
.
4cc/
.
.
.
8a/L
.
8f#/J
.
=4
!!linebreak:original
4a/
.
.
.
8g/
.
8g/
.
8ee\
.
8ee\
.
8dd\
.
8cc\
.
=5
4cc\
.
.
.
8b\
.
8dd/
.
4dd/
.
.
.
(8cc#\
.
8b/
.
=6
!!linebreak:original
8a/)
.
8g/
.
8f#/L
.
8b/J
.
(4d/
.
.
.
8f#/)
.
8e/
.
=7
4d/
.
.
.
8r
.
8a/
.
4dd/
.
.
.
4dd/
.
.
.
=8
4dd/
.
.
.
8b/L
.
8g#/J
.
8a/
.
8g#/
.
8a/
.
8b/
.
=9
!!linebreak:original
8b\L
.
8cc\J
.
8cc\
.
8a\
.
4ee/
.
.
.
4ee/
.
.
.
=10
(8dd\L
.
[8gg\J
.
8gg\])
.
16ff#\LL
16ee\JJ
8dd\
.
8dd#\
.
8ee\
.
8cc/
.
=11
!!linebreak:original
8cc/L
.
8b/J
.
8b/
.
8b\
.
8ee\
.
8cc\
.
8b\
.
8a/
.
=12
8g#/
.
8r
.
8a/
.
8r
.
8b\
.
8r
.
8cc\
.
8r
.
=13
!!linebreak:original
4g/
.
.
.
8f#/
.
8dd\
.
8cc\
.
8b\
.
8a/L
.
8g/J
.
=14
16b/LL
16a/
16g#/
16a/JJ
8b/L
.
8cc/J
.
4gn/
.
.
.
8b/L
.
8a/J
.
=15
4g/
.
.
.
4r
.
.
.
==
*-
